images/guide_icon_04.svg

<svg fill="none" height="56" viewBox="0 0 56 56" width="56" xmlns="http://www.w3.org/2000/svg"><path d="m40.9057 1.33398h-25.8112c-3.6453.014-7.13739 1.46831-9.71505 4.04598-2.57767 2.57767-4.03198 6.06974-4.04597 9.71504v2.2953c-.00621.9748.26532 1.9312.78283 2.7574.5175.8261 1.25957 1.4878 2.13939 1.9075.65028.2919 1.20427.7624 1.59746 1.3569s.60939 1.2884.62343 2.001v25.79c0 .9188.36497 1.7999 1.01463 2.4496.64966.6496 1.53078 1.0146 2.44953 1.0146h36.12925c.9188 0 1.7999-.365 2.4496-1.0146.6496-.6497 1.0146-1.5308 1.0146-2.4496v-25.8112c.0171-.7078.2336-1.3964.6246-1.9867.391-.5902.9406-1.0582 1.5857-1.35.8765-.4182 1.6164-1.0766 2.1337-1.8986.5172-.8219.7907-1.7738.7885-2.745v-2.3166c-.014-3.6453-1.4683-7.13737-4.046-9.71504-2.5776-2.57767-6.0697-4.03198-9.715-4.04598z" fill="#e5cfa5" stroke="#d3a35a" stroke-miterlimit="10" stroke-width="1.5"/><g fill="#d3a35a"><circle cx="41.3333" cy="25.3333" r="1.33333"/><circle cx="41.3333" cy="35.9993" r="1.33333"/><circle cx="33.3333" cy="25.3333" r="1.33333"/><circle cx="33.3333" cy="35.9993" r="1.33333"/><circle cx="37.3333" cy="30.6673" r="1.33333"/><circle cx="37.3333" cy="41.3333" r="1.33333"/></g></svg>

<svg width="56" height="56" viewBox="0 0 56 56" fill="none" xmlns="http://www.w3.org/2000/svg">
<path d="M40.9057 1.33398H15.0945C11.4492 1.34798 7.95711 2.80229 5.37945 5.37996C2.80178 7.95763 1.34747 11.4497 1.33348 15.095V17.3903C1.32727 18.3651 1.5988 19.3215 2.11631 20.1477C2.63381 20.9738 3.37588 21.6355 4.2557 22.0552C4.90598 22.3471 5.45997 22.8176 5.85316 23.4121C6.24635 24.0066 6.46255 24.7005 6.47659 25.4131V51.2031C6.47659 52.1219 6.84156 53.003 7.49122 53.6527C8.14088 54.3023 9.022 54.6673 9.94075 54.6673H46.07C46.9888 54.6673 47.8699 54.3023 48.5196 53.6527C49.1692 53.003 49.5342 52.1219 49.5342 51.2031V25.3919C49.5513 24.6841 49.7678 23.9955 50.1588 23.4052C50.5498 22.815 51.0994 22.347 51.7445 22.0552C52.621 21.637 53.3609 20.9786 53.8782 20.1566C54.3954 19.3347 54.6689 18.3828 54.6667 17.4116V15.095C54.6527 11.4497 53.1984 7.95763 50.6207 5.37996C48.0431 2.80229 44.551 1.34798 40.9057 1.33398V1.33398Z" fill="#E5CFA5" stroke="#D3A35A" stroke-width="1.5" stroke-miterlimit="10"/>
<circle cx="41.3333" cy="25.3333" r="1.33333" fill="#D3A35A"/>
<circle cx="41.3333" cy="35.9993" r="1.33333" fill="#D3A35A"/>
<circle cx="33.3333" cy="25.3333" r="1.33333" fill="#D3A35A"/>
<circle cx="33.3333" cy="35.9993" r="1.33333" fill="#D3A35A"/>
<circle cx="37.3333" cy="30.6673" r="1.33333" fill="#D3A35A"/>
<circle cx="37.3333" cy="41.3333" r="1.33333" fill="#D3A35A"/>
</svg>
